icon/fa/binoculars.svg

<svg xmlns="http://www.w3.org/2000/svg" viewBox="0 0 512 512"><!--! Font Awesome Free 6.1.2 by @fontawesome - https://fontawesome.com License - https://fontawesome.com/license/free (Icons: CC BY 4.0, Fonts: SIL OFL 1.1, Code: MIT License) Copyright 2022 Fonticons, Inc.--><path d="M416 48c0-8.87-7.1-16-16-16h-64c-8.9 0-16 7.13-16 16v48h96.04L416 48zM63.88 160.1C61.34 253.9 3.5 274.3 0 404v44c0 17.6 14.4 32 32 32h128c17.6 0 32-14.4 32-32V128H95.88c-17.62 0-31.53 14.5-32 32.1zm384.22 0c-.5-17.6-14.4-32.1-32-32.1H320v320c0 17.6 14.4 32 32 32h128c17.6 0 32-14.4 32-32v-44c-3.5-129.7-61.3-150.1-63.9-243.9zM224 288h64V128h-64v160zM176 32h-64c-8.9 0-16 7.13-16 16l-.04 48H192V48c0-8.87-7.1-16-16-16z"/></svg>

<svg xmlns="http://www.w3.org/2000/svg" viewBox="0 0 512 512" height="1em" width="1em">
<!--! Font Awesome Free 6.1.2 by @fontawesome - https://fontawesome.com License - https://fontawesome.com/license/free (Icons: CC BY 4.0, Fonts: SIL OFL 1.1, Code: MIT License) Copyright 2022 Fonticons, Inc.-->
  <path d="M416 48C416 39.13 408.9 32 400 32h-64C327.1 32 320 39.13 320 48V96h96.04L416 48zM63.88 160.1C61.34 253.9 3.5 274.3 0 404V448c0 17.6 14.4 32 32 32h128c17.6 0 32-14.4 32-32V128H95.88C78.26 128 64.35 142.5 63.88 160.1zM448.1 160.1C447.6 142.5 433.7 128 416.1 128H320v320c0 17.6 14.4 32 32 32h128c17.6 0 32-14.4 32-32v-44C508.5 274.3 450.7 253.9 448.1 160.1zM224 288h64V128H224V288zM176 32h-64C103.1 32 96 39.13 96 48L95.96 96H192V48C192 39.13 184.9 32 176 32z"/>
</svg>
